!!!COM: Angelo Berardi
!!!OPR: Documenti Armonici
!!!ONB: Canon at the octave above after a semibreve, CF below
!!!PPR: Giacomo Monti
!!!PDT: 1687
!!!PPP: Bologna
!!!ONB: Reprint ed., Bologna: Forni., 1970.  Bk II p. 107.
!!!ONB: Transcribed from Angelo Berardi, Documenti Armonici, 1687,
**kern	**kern	**kern
*CF	*guida	*conseq
*k[]	*k[]	*k[]
*M4/4	*M4/4	*M4/4
=1-	=1-	=1-
[1D	2A	1r
.	4A	.
.	4A	.
=2	=2	=2
1D_	4.F	2a
.	8G	.
.	4A	4a
.	4D	4a
=3	=3	=3
1D]	4r	4.f
.	4d	.
.	.	8g
.	4d	4a
.	4d	4d
=4	=4	=4
[1G	4.B	4r
.	.	4dd
.	8c	.
.	4d	4dd
.	4B	4dd
=5	=5	=5
1G]	4r	4.b
.	4g	.
.	.	8cc
.	4g	4dd
.	4g	4b
=6	=6	=6
[1C	4.e	4r
.	.	4gg
.	8f	.
.	4g	4gg
.	4e	4gg
=7	=7	=7
1C]	4r	4.ee
.	4c	.
.	.	8ff
.	4c	4gg
.	4c	4ee
=8	=8	=8
[1F	4.A	4r
.	.	4cc
.	8B	.
.	4c	4cc
.	4A	4cc
=9	=9	=9
1F]	4.F	4.a
.	8G	8b
.	4A	4cc
.	[4F	4a
=10	=10	=10
[1D	4F]	4.f
.	4D	.
.	.	8g
.	4r	4a
.	4d	[4f
=11	=11	=11
1D_	2B-	4f]
.	.	4d
.	[2A	4r
.	.	4dd
=12	=12	=12
1D]	4A]	2b-
.	2G	.
.	.	[2a
.	8F#	.
.	8E	.
=13	=13	=13
[1D	4F#	4a]
.	2B-	2g
.	8A	8f#
.	8G	8e
=14	=14	=14
1D_	[1A	[1f#
=15	=15	=15
1D]	1A]	1f#]
==	==	==
*-	*-	*-
!!!CDT: ~1636//-1694/4/9
!!!CNT: Italia
!!!ODT: <1687//
!!!YEP: David Huron and Denis Collins
!!!YEN: Canada
!!!AIN: vox; ?
!!!AST: polyphony
!!!RDT: 1995 July 3
!!!YED: 1995 August 31
!!!AFR: cantus firmus canon
!!!AMT: simple quadruple
!!!EEV: 1.0
